_includes/icons/ios-api.svg

<svg fill="#666" height="50" viewBox="0 0 50 50" width="50" xmlns="http://www.w3.org/2000/svg"><path d="m2.8125 6c-.476562.089844-.820312.511719-.8125 1v36c0 .550781.449219 1 1 1h44c.550781 0 1-.449219 1-1v-36c0-.03125 0-.0625 0-.09375-.046875-.515625-.480469-.910156-1-.90625h-44c-.03125 0-.0625 0-.09375 0s-.0625 0-.09375 0zm1.1875 2h42v34h-42zm32.90625 7.96875c-.042969.007813-.085937.019531-.125.03125h-1.28125c-.03125 0-.0625 0-.09375 0-.550781.027344-.980469.496094-.953125 1.046875s.496094.980469 1.046875.953125h.5v13h-.5c-.03125 0-.0625 0-.09375 0s-.0625 0-.09375 0c-.550781.050781-.957031.542969-.90625 1.09375s.542969.957031 1.09375.90625h3c.359375.003906.695313-.183594.878906-.496094.179688-.3125.179688-.695312 0-1.007812-.183593-.3125-.519531-.5-.878906-.496094h-.5v-13h.5c.359375.003906.695313-.183594.878906-.496094.179688-.3125.179688-.695312 0-1.007812-.183593-.3125-.519531-.5-.878906-.496094h-1.3125c-.089844-.023437-.1875-.035156-.28125-.03125zm-22.53125.03125c-.402344.046875-.734375.332031-.84375.71875l-4.5 14.625c-.023437.089844-.035156.1875-.03125.28125v.375c-.003906.359375.183594.695313.496094.878906.3125.179688.695312.179688 1.007812 0 .3125-.183593.5-.519531.496094-.878906v-.15625l.875-2.84375h5.25l.875 2.84375v.15625c-.003906.359375.183594.695313.496094.878906.3125.179688.695312.179688 1.007812 0 .3125-.183593.5-.519531.496094-.878906v-.375c.003906-.09375-.007812-.191406-.03125-.28125l-4.5-14.625c-.136719-.476562-.601562-.785156-1.09375-.71875zm9.4375 0c-.476562.089844-.820312.511719-.8125 1v8.8125c-.027344.132813-.027344.273438 0 .40625v5.78125c-.003906.359375.183594.695313.496094.878906.3125.179688.695312.179688 1.007812 0 .3125-.183593.5-.519531.496094-.878906v-5h3c2.199219 0 4-1.800781 4-4v-3c0-2.199219-1.800781-4-4-4h-4c-.03125 0-.0625 0-.09375 0s-.0625 0-.09375 0zm1.1875 2h3c1.117188 0 2 .882813 2 2v3c0 1.117188-.882812 2-2 2h-3zm-10.5 2.4375 2 6.5625h-4z"/></svg>

<svg xmlns="http://www.w3.org/2000/svg" viewBox="0 0 50 50" width="50" height="50" fill="#666"><path d="M 2.8125 6 C 2.335938 6.089844 1.992188 6.511719 2 7 L 2 43 C 2 43.550781 2.449219 44 3 44 L 47 44 C 47.550781 44 48 43.550781 48 43 L 48 7 C 48 6.96875 48 6.9375 48 6.90625 C 47.953125 6.390625 47.519531 5.996094 47 6 L 3 6 C 2.96875 6 2.9375 6 2.90625 6 C 2.875 6 2.84375 6 2.8125 6 Z M 4 8 L 46 8 L 46 42 L 4 42 Z M 36.90625 15.96875 C 36.863281 15.976563 36.820313 15.988281 36.78125 16 L 35.5 16 C 35.46875 16 35.4375 16 35.40625 16 C 34.855469 16.027344 34.425781 16.496094 34.453125 17.046875 C 34.480469 17.597656 34.949219 18.027344 35.5 18 L 36 18 L 36 31 L 35.5 31 C 35.46875 31 35.4375 31 35.40625 31 C 35.375 31 35.34375 31 35.3125 31 C 34.761719 31.050781 34.355469 31.542969 34.40625 32.09375 C 34.457031 32.644531 34.949219 33.050781 35.5 33 L 38.5 33 C 38.859375 33.003906 39.195313 32.816406 39.378906 32.503906 C 39.558594 32.191406 39.558594 31.808594 39.378906 31.496094 C 39.195313 31.183594 38.859375 30.996094 38.5 31 L 38 31 L 38 18 L 38.5 18 C 38.859375 18.003906 39.195313 17.816406 39.378906 17.503906 C 39.558594 17.191406 39.558594 16.808594 39.378906 16.496094 C 39.195313 16.183594 38.859375 15.996094 38.5 16 L 37.1875 16 C 37.097656 15.976563 37 15.964844 36.90625 15.96875 Z M 14.375 16 C 13.972656 16.046875 13.640625 16.332031 13.53125 16.71875 L 9.03125 31.34375 C 9.007813 31.433594 8.996094 31.53125 9 31.625 L 9 32 C 8.996094 32.359375 9.183594 32.695313 9.496094 32.878906 C 9.808594 33.058594 10.191406 33.058594 10.503906 32.878906 C 10.816406 32.695313 11.003906 32.359375 11 32 L 11 31.84375 L 11.875 29 L 17.125 29 L 18 31.84375 L 18 32 C 17.996094 32.359375 18.183594 32.695313 18.496094 32.878906 C 18.808594 33.058594 19.191406 33.058594 19.503906 32.878906 C 19.816406 32.695313 20.003906 32.359375 20 32 L 20 31.625 C 20.003906 31.53125 19.992188 31.433594 19.96875 31.34375 L 15.46875 16.71875 C 15.332031 16.242188 14.867188 15.933594 14.375 16 Z M 23.8125 16 C 23.335938 16.089844 22.992188 16.511719 23 17 L 23 25.8125 C 22.972656 25.945313 22.972656 26.085938 23 26.21875 L 23 32 C 22.996094 32.359375 23.183594 32.695313 23.496094 32.878906 C 23.808594 33.058594 24.191406 33.058594 24.503906 32.878906 C 24.816406 32.695313 25.003906 32.359375 25 32 L 25 27 L 28 27 C 30.199219 27 32 25.199219 32 23 L 32 20 C 32 17.800781 30.199219 16 28 16 L 24 16 C 23.96875 16 23.9375 16 23.90625 16 C 23.875 16 23.84375 16 23.8125 16 Z M 25 18 L 28 18 C 29.117188 18 30 18.882813 30 20 L 30 23 C 30 24.117188 29.117188 25 28 25 L 25 25 Z M 14.5 20.4375 L 16.5 27 L 12.5 27 Z"/></svg>
